static/logo_long_light.svg

<svg xmlns="http://www.w3.org/2000/svg" width="550" height="160" viewBox="0 0 550 160"><path d="M172 127.5V32.6c0-1.4-.7-2.8-1.9-3.6-1.2-.8-2.7-.9-4-.3l-38.8 16.8v-27c0-1.4-.7-2.8-1.9-3.6-1.2-.8-2.7-.9-4-.4L82.6 31.3v-27c0-1.4-.7-2.8-1.9-3.6-1.2-.8-2.7-.9-4-.4L11 28.7c-1.6.7-2.6 2.2-2.6 3.9v94.9c0 1.4.7 2.8 1.9 3.6.7.5 1.5.7 2.3.7.6 0 1.1-.1 1.7-.3l38.8-16.8v27c0 1.4.7 2.8 1.9 3.6.7.5 1.5.7 2.3.7.6 0 1.1-.1 1.7-.3l38.8-16.8v27c0 1.4.7 2.8 1.9 3.6.7.5 1.5.7 2.3.7.6 0 1.1-.1 1.7-.3l65.6-28.4c1.7-.7 2.7-2.3 2.7-4Zm-8.5-2.8-57.1 24.7v-24.2l18.3-7.9c1.6-.7 2.6-2.2 2.6-3.9V64l-8.5 3.7v42.8l-12.4 5.4-8.5 3.7-36.2 15.6V111l18.3-7.9c1.6-.7 2.6-2.2 2.6-3.9V49.8l-8.5 3.7v42.8l-12.4 5.4-8.5 3.7L17 121V35.4l57.1-24.7V35l-18.3 7.9c-1.6.7-2.6 2.2-2.6 3.9v49.3l8.5-3.7V49.6l12.4-5.4 8.5-3.7 36.2-15.6v24.2L100.5 57c-1.6.7-2.6 2.2-2.6 3.9v49.3l8.5-3.7V63.8l12.4-5.4 8.5-3.7 36.2-15.6v85.6Z" style="fill:#15c6f6"/><g><path d="M44.2 187.4c-2.3-7.1-9.4-11.4-20.1-11.4-15 0-24.1 8.7-24.1 21.4 0 13 9.1 21.5 23 21.5 16 0 22.9-8.6 22.9-20.5 0-1.2 0-2.5-.3-3.8H23.2v7h12.5c.2 5.6-5.2 9.4-11.9 9.4-8.6 0-13-5.3-13-13.6s4.5-13.8 12.3-13.8c4.6 0 8.4 1.9 9.9 6.2l11.2-2.4zM74.6 210.9c-7.6 0-12.4-5.3-12.4-13.5 0-8.3 4.8-13.5 12.4-13.5 7.6 0 12.4 5.2 12.4 13.5s-4.8 13.5-12.4 13.5zm0 7.9c14 0 23.1-8.3 23.1-21.4 0-13.1-9.1-21.4-23.1-21.4s-23.1 8.3-23.1 21.4c.1 13.1 9.2 21.4 23.1 21.4zM125 210.7h-11.2v-10.3h11.3c4.2 0 6.3 2 6.3 5.1 0 2.9-2 5.2-6.4 5.2zm-11.2-26.5h10.6c4.3 0 5.9 2.1 5.9 4.6 0 2.6-1.4 4.9-5.9 4.9h-10.6v-9.5zm19.6 12.3c5-1.2 7.6-4.7 7.6-9 0-5.9-4.3-10.3-13.8-10.3h-23.6v40.5h24.1c9.9 0 14.4-5.1 14.4-11.5 0-5.3-3-8.8-8.7-9.7zM149.2 177.2v40.5h31.4v-8.2h-21.2v-32.3z" style="fill:#15c6f6" transform="matrix(1.78771 0 0 1.78771 223.045 -272.984)"/></g></svg>

<?xml version="1.0" encoding="utf-8"?>
<svg version="1.1" id="Capa_1" x="0px" y="0px" viewBox="0 0 550 160" style="enable-background:new 0 0 180.6 218.8;" xmlns="http://www.w3.org/2000/svg">
  <path d="M 172 127.5 L 172 32.6 C 172 31.2 171.3 29.8 170.1 29 C 168.9 28.2 167.4 28.1 166.1 28.7 L 127.3 45.5 L 127.3 18.5 C 127.3 17.1 126.6 15.7 125.4 14.9 C 124.2 14.1 122.7 14 121.4 14.5 L 82.6 31.3 L 82.6 4.3 C 82.6 2.9 81.9 1.5 80.7 0.7 C 79.5 -0.1 78 -0.2 76.7 0.3 L 11 28.7 C 9.4 29.4 8.4 30.9 8.4 32.6 L 8.4 127.5 C 8.4 128.9 9.1 130.3 10.3 131.1 C 11 131.6 11.8 131.8 12.6 131.8 C 13.2 131.8 13.7 131.7 14.3 131.5 L 53.1 114.7 L 53.1 141.7 C 53.1 143.1 53.8 144.5 55 145.3 C 55.7 145.8 56.5 146 57.3 146 C 57.9 146 58.4 145.9 59 145.7 L 97.8 128.9 L 97.8 155.9 C 97.8 157.3 98.5 158.7 99.7 159.5 C 100.4 160 101.2 160.2 102 160.2 C 102.6 160.2 103.1 160.1 103.7 159.9 L 169.3 131.5 C 171 130.8 172 129.2 172 127.5 Z M 163.5 124.7 L 106.4 149.4 L 106.4 125.2 L 124.7 117.3 C 126.3 116.6 127.3 115.1 127.3 113.4 L 127.3 64 L 118.8 67.7 L 118.8 110.5 L 106.4 115.9 L 97.9 119.6 L 61.7 135.2 L 61.7 111 L 80 103.1 C 81.6 102.4 82.6 100.9 82.6 99.2 L 82.6 49.8 L 74.1 53.5 L 74.1 96.3 L 61.7 101.7 L 53.2 105.4 L 17 121 L 17 35.4 L 74.1 10.7 L 74.1 35 L 55.8 42.9 C 54.2 43.6 53.2 45.1 53.2 46.8 L 53.2 96.1 L 61.7 92.4 L 61.7 49.6 L 74.1 44.2 L 82.6 40.5 L 118.8 24.9 L 118.8 49.1 L 100.5 57 C 98.9 57.7 97.9 59.2 97.9 60.9 L 97.9 110.2 L 106.4 106.5 L 106.4 63.8 L 118.8 58.4 L 127.3 54.7 L 163.5 39.1 L 163.5 124.7 Z" style="fill: rgb(21, 198, 246);"/>
  <g transform="matrix(1.787714, 0, 0, 1.787714, 223.044586, -272.984131)" style="">
    <g>
      <path d="M44.2,187.4c-2.3-7.1-9.4-11.4-20.1-11.4C9.1,176,0,184.7,0,197.4c0,13,9.1,21.5,23,21.5c16,0,22.9-8.6,22.9-20.5 c0-1.2,0-2.5-0.3-3.8H23.2v7h12.5c0.2,5.6-5.2,9.4-11.9,9.4c-8.6,0-13-5.3-13-13.6c0-8.3,4.5-13.8,12.3-13.8 c4.6,0,8.4,1.9,9.9,6.2L44.2,187.4z" style="fill: rgb(21, 198, 246);"/>
      <path d="M74.6,210.9c-7.6,0-12.4-5.3-12.4-13.5c0-8.3,4.8-13.5,12.4-13.5c7.6,0,12.4,5.2,12.4,13.5 C87,205.7,82.2,210.9,74.6,210.9z M74.6,218.8c14,0,23.1-8.3,23.1-21.4c0-13.1-9.1-21.4-23.1-21.4s-23.1,8.3-23.1,21.4 C51.6,210.5,60.7,218.8,74.6,218.8z" style="fill: rgb(21, 198, 246);"/>
      <path d="M125,210.7h-11.2v-10.3h11.3c4.2,0,6.3,2,6.3,5.1C131.4,208.4,129.4,210.7,125,210.7z M113.8,184.2h10.6 c4.3,0,5.9,2.1,5.9,4.6c0,2.6-1.4,4.9-5.9,4.9h-10.6V184.2z M133.4,196.5c5-1.2,7.6-4.7,7.6-9c0-5.9-4.3-10.3-13.8-10.3h-23.6 v40.5h24.1c9.9,0,14.4-5.1,14.4-11.5C142.1,200.9,139.1,197.4,133.4,196.5z" style="fill: rgb(21, 198, 246);"/>
      <polygon points="149.2,177.2 149.2,217.7 180.6,217.7 180.6,209.5 159.4,209.5 159.4,177.2 &#9;&#9;&#9;" style="fill: rgb(21, 198, 246);"/>
    </g>
  </g>
</svg>
